public/images/git.svg

<svg width="55" height="56" viewBox="0 0 55 56" fill="none" xmlns="http://www.w3.org/2000/svg">
<path id="Vector" d="M53.8549 25.092L29.9649 1.08555C28.5899 -0.29707 26.3585 -0.29707 24.9818 1.08555L20.021 6.07086L26.3141 12.395C27.7765 11.8984 29.4535 12.2315 30.6192 13.403C31.7905 14.582 32.1196 16.2816 31.6135 17.756L37.6783 23.8509C39.1456 23.3429 40.8387 23.6716 42.0106 24.8512C43.6485 26.4965 43.6485 29.1631 42.0106 30.8095C40.3723 32.4561 37.7187 32.4561 36.0796 30.8095C34.8476 29.5702 34.5432 27.752 35.1669 26.2267L29.5109 20.5429L29.5103 35.5004C29.9203 35.7041 30.2948 35.9732 30.6192 36.2972C32.2571 37.9425 32.2571 40.6094 30.6192 42.2571C28.9809 43.9028 26.326 43.9028 24.6901 42.2571C23.0522 40.6094 23.0522 37.9428 24.6901 36.2974C25.0826 35.9028 25.549 35.5903 26.0625 35.3779V20.2811C25.5483 20.0701 25.0816 19.7574 24.6901 19.3615C23.4491 18.1162 23.1507 16.2864 23.7866 14.7551L17.5831 8.52035L1.20216 24.9809C-0.174319 26.3648 -0.174319 28.6075 1.20216 29.9903L25.0925 53.9972C26.468 55.38 28.699 55.38 30.0761 53.9972L53.8547 30.1018C55.2307 28.7185 55.2307 26.4746 53.8547 25.092" fill="#DE4C36"/>
</svg>

<svg xmlns="http://www.w3.org/2000/svg" width="55" height="56" fill="none"><path fill="#DE4C36" d="M53.855 25.092 29.965 1.086a3.512 3.512 0 0 0-4.983 0L20.02 6.07l6.293 6.324a4.168 4.168 0 0 1 4.305 1.008 4.225 4.225 0 0 1 .994 4.353l6.065 6.095a4.172 4.172 0 0 1 4.333 1 4.227 4.227 0 0 1 0 5.959 4.178 4.178 0 0 1-5.931 0 4.231 4.231 0 0 1-.913-4.583l-5.656-5.684V35.5c.41.204.784.473 1.108.797a4.229 4.229 0 0 1 0 5.96 4.177 4.177 0 0 1-5.929 0 4.228 4.228 0 0 1 0-5.96 4.2 4.2 0 0 1 1.372-.92V20.282a4.227 4.227 0 0 1-2.276-5.526L17.584 8.52 1.203 24.98a3.555 3.555 0 0 0 0 5.01l23.89 24.007a3.512 3.512 0 0 0 4.983 0l23.779-23.895a3.556 3.556 0 0 0 0-5.01"/></svg>
